X:1895
L:1/8
Q:1/4=112
M:4/4
K:F
"F" c2 A>B c2 A>G | F4 C2 z2 | F2 E>F"C" G2 B>A | G6 z2 |"F" c2 A>B c2 A>G | F4 C2 z2 | 
 F2 E>F"C7" G2 A>G |"F" F6 z2 ||"Bb" B2 B>B B4 |"F" A2 A>A A4 |"Bb" d2 d>d"F" c2"Gm" B>A | 
"C" G2"G7" =B>B"C" c4 |"F" c2 A>B c2 A>G | F4 C2 z2 | F2 E>F"C7" G2 A>G |"F" F6 z2 |]

